X:876
T:Sweet Molly
R:Reel
B:The Athole Collection
M:C|
L:1/8
K:E Minor
e|E/E/E BE dEBe|dBAF DEFD|E/E/E BE dEBe|dBAF BBE:|
F|Eeef gfed|BdAF DEFD|Eeef gfed|BdAF BEEF|Eeef gfed|
BdAF DEFf|afge fde^c|dBAF BBE||

